X: 4997
T: Brendan's Birthday
R: jig
M: 6/8
K: Gmajor
A|BDD EDE|G2D G2A|BDD EDE|GAB dBA|
BDD EDE|G2D G2B|ABA GED|G3 A3:|
Bdd dBA|G2D G2A|Bdd def|gag edA|
Bdd dBA|G2D G2B|ABA GED|G3 A3:|

